X:1
T:Tota pulchra es amica mea
T:Giovanni Battista Riccio
T:Source: Edition Gardano, Venetia, 1620
T:1644 - 1704
T:Tota pulchra es amica mea
T:Song of songs 4:7
T:(C) Wim Looyestijn - 2015
T:(C) Wim Looyestijn - 2015
T:(C) Wim Looyestijn - 2015
T:(C) Wim Looyestijn - 2015
T:(C) Wim Looyestijn - 2015
T:(C) Wim Looyestijn - 2015
T:(C) Wim Looyestijn - 2015
T:(C) Wim Looyestijn - 2015
T:(C) Wim Looyestijn - 2015
T:(C) Wim Looyestijn - 2015
T:(C) Wim Looyestijn - 2015
T:(C) Wim Looyestijn - 2015
C:Giovanni Battista Riccio
Z:(C) Wim Looyestijn - 2015
%%score 1 2 3 4
L:1/8
Q:1/4=60
M:3/1
K:C
V:1 treble-8 nm="MusicXML Part"
V:2 treble-8 nm="MusicXML Part"
V:3 bass nm="MusicXML Part"
V:4 bass nm="MusicXML Part"
V:1
 z24 | z24 | e12 e4 d4 c4 |[M:4/4] B2 G2 G2 A2 | B2 c2 B4 | A2 A2 A2 B2 | ^c2 d4 c2 | d8 | %8
w: ||To- ta pul- chra|es, a- mi- ca-|me- * *|a, a- mi- ca|me- * *|a,|
[M:3/1] d12 d4 c4 B4 | A4 c8 c4 B4 A4 |[M:4/4] G2 G2 G2 A2 | B2 c2 B4 | A2 A2 A2 B2 | ^c6 d2 | %14
w: to- ta pul- chra-|es, to- ta pul- chra|es a- mi- ca|me- * *|a, a- mi- ca|me- *|
 e2 f2 e4 |[M:3/1] d16 z8 | z24 | z24 | z24 | z8 z8 d8 | c12 d4 e8 | d8 d8 ^c8 | d16 d8 | %23
w: |a,||||et|ma- cu- la|non est in|te, et|
 d12 d4 d4 d4 | e12 e4 e8 | d8 d8 ^c8 |[M:4/4] d4 f2 ed | e2 dc d2 e2 | f4 e4 | z8 | z4 f4- | %31
w: ma- cu- la, et|ma- cu- la|non est in|te. Ve- ni- de|Li- ba- no spon- sa|me- a,||ve-|
 f2 ed e2 dc | d2 e2 f2 ed | ^c2 d4 c2 | d4 A4- | A2 Bc d4 | d8 | z4 d4- | d2 e^f g4 | g8 | %40
w: * ni- de Li- ba- no|spon- sa me- * *||a, ve-||ni,|ve-||ni,|
 z4 c4- | c2 d2 B3 B | c8 | e2 e2 e4- | e2 dc B4 | A2 cd e4 | e4 z2 ef | g4 g2 g2 | g6 fe | d8 | %50
w: co-|* ro- na- be-|ris.|Vul- ne- ra-|* sti cor me-|um, vul- ne- ra-|sti, vul- ne-|ra- sti cor|me- * *||
 c4 e2 f2 | g2 a2 g2 fe | d2 e2 f2 ed | ^c2 d4 c2 | d4 A2 A2 | A6 AB | ^c2 d4 c2 | d2 d2 fedc | %58
w: um, so- ror|me- a spon- * *|||sa, vul- ne-|ra- sti cor|me- * *|um in u- no o- cu-|
 B4 B2 d2 | ^c d2 c d4 | z4 B4 | edcB A2 AA | ^G A2 G A4 | z4 z2 cc | d2 dd e4 | f8 | z2 ed c2 A2 | %67
w: lo- rum tu-|o- * * rum,|in|u- no o- cu- lo- rum tu-|o- * * rum,|o- cu-|lo- rum tu- o-|rum,|et in u- no|
 B4 c4 | de fd e2 f2 | e4 d4 | gf ed c2 c2 | B4 c4 | z4 AG AB | ^c2 d4 c2 | d8 | z4 e4- | e4 d4- | %77
w: cri- ne|col- * * * * li|tu- i,|col- * * * * li|tu- i,|col- * * *|* li tu-|i.|Quam|* pul-|
 d4 c4- | c4 B4 | A3 c d4 | e4 d4- | d2 c2 B4 | c8 | z8 | z8 | e2 e2 e2 d2 | ^c2 d4 c2 | d8 | z8 | %89
w: * chrae|* sunt|mam- mae tu-|ae, mam-|* mae tu-|ae.|||So- ror me- a|spon- * *|sa!||
 z8 | e2 e2 e2 d2 | c2 d2 e2 dc | B8 | ^c8 | z8 | z8 | z8 | z2 A4 A2 | d4 _B4 | A4 z2 A2- | %100
w: |So- ror me- a|spon- * * * *||sa!||||Pul- chri-|o- sa|sunt u-|
 A2 d2 d4 | c6 B2 | ^c2 d4 c2 | d2 d2 e4 | d2 dd d2 gf | e8 | f8 | z8 | g6 d2 | f3 f f2 f2 | %110
w: * be- ra|tu- a|vi- * *|no et o-|dor un- guen- to- rum tu-|o-|rum||su- per|om- ni- a a-|
 e4 e2 d2 | f6 ed | ^c4 c4 | d8 | z4 g4- | g2 e2 e3 e | d4 d4 | ^c4 d4- | d4 ^c4 | d16 |] %120
w: ro- ma- ta,|a- ro- *|* ma-|ta,|su-|* per om- ni-|a a-|ro- *|* ma-|ta.|
V:2
 z24 | A12 A4 G4 F4 | E16 z8 |[M:4/4] z2 E2 E3 F | ^G2 A4 G2 | A2 ^F2 F2 G2 | E2 ^F2 E4 | DAFD A4 | %8
w: |To- ta pul- chra|es,|a- mi- ca-|me- * *|a, a- mi- ca|me- * *|a, a- mi- ca me-|
[M:3/1] D16 z8 | A12 A4 G4 F4 |[M:4/4] E2 E2 E3 F | ^G2 A4 G2 | A4 z4 | z2 A2 A2 B2 | ^c2 d4 c2 | %15
w: a,|to- ta pul- chra-|es a- mi- ca|me- * *|a,|a- mi- ca|me- * *|
[M:3/1] d16 z8 | z24 | z24 | z24 | z8 z8 A8 | A12 G4 G8 | F8 A12 E4 | ^F16 A8 | B12 B4 B4 B4 | %24
w: a,||||et|ma- cu- la|non est in|te, et|ma- cu- la, et|
 G12 G4 G8 | _B8 A8 A8 |[M:4/4] A8 | z8 | A2 GF G2 FE | F2 G2 E4 | D4 d4- | d2 GG G2 GA | %32
w: ma- cu- la|non est in|te.||Ve- ni- de Li- ba- no|spon- sa me-|a, ve-|* ni- de Li- ba- no|
 G2 FE D2 D2 | E2 F2 E3 A | A8 | ^F6 GA | B8 | B8 | B6 cd | e4 E4 | G4 A4- | A2 A2 ^G3 G | %42
w: spon- * * * sa|me- * * *|a,|ve- * *||ni,|ve- * *||ni, co-|* ro- na- be-|
 A4 c2 c2 | c6 BA | ^G2 A4 G2 | A4 z2 EF | G4 G2 c2 | c4 c2 cc | d2 BG c4- | c4 B4 | c8 | z4 BBcc | %52
w: ris. Vul- ne-|ra- sti cor|me- * *|um, vul- ne-|ra- sti cor|me- um, vul- ne-|ra- sti cor me-||um,|so- ror me- a|
 d2 cB A4- | A2 GF E4 | D4 F2 F2 | F6 ED | E2 F2 E4 | D4 A4 | dcBA G2 FF | E4 D4 | z2 A2 ^G A2 G | %61
w: spon- * * *||sa, vul- ne-|ra- sti cor|me- * *|um in|u- no o- cu- lo- rum tu-|o- rum,|tu- o- * *|
 A2 AB c2 cc | B4 A4 | z2 d2 cBAG | A2 AB ^c d2 c | d2 AG F2 D2 | E4 F4 | G4 A4 | Bc dB ^c2 d2- | %69
w: rum, o- cu- lo- rum tu-|o- rum,|in u- no o- cu-|lo- rum tu- o- * *|rum, et in u- no|cri- ne|col- li|tu- * * * * *|
 d2 ^c2 d4 | z8 | z4 cBAG | A4 F4 | E2 F2 E3 A | A8 | c8 | B8 | A8 | G8 | A2 c4 B2 | c4 A4- | %81
w: * * i,||et in u- no|cri- ne|col- li tu- *|i.|Quam|pul-|chrae|sunt|mam- mae tu-|ae, mam-|
 A2 A4 G2 | A8 | z4 A2 A2 | A3 G FE FG | A4 G4 | z4 A2 A2 | A3 G FG AB | c2 BA GA Bc | d4 A4 | %90
w: * mae tu-|ae.|So- ror|me- a spon- * * *|* sa!|So- ror|me- a spon- * * *||* sa!|
 G2 G2 G3 D | E6 ^F2 | ^G2 A4 G2 | A2 A4 A2 | d4 _B4 | A2 c3 c G2 | A2 _B2 A4 | D2 D2 A4 | %98
w: So- ror me- a|spon- *||sa! Pul- chri-|o- sa|sunt u- be- ra|tu- a vi-|no et o-|
 ^F2 FF G2 dd | ^c2 d4 c2 | d2 AA _B2 FF | F2 G4 DD | A2 FD E4 | F2 AB ^c4 | d2 AA B2 BB | %105
w: dor un- guen- to- rum tu-|o- * *|rum un- guen- to- rum tu-|o- rum un- guen-|to- rum tu- o-|rum un- guen- to-|rum un- guen- to- rum tu-|
 ^c2 d4 c2 | d2 d4 A2 | c3 c c2 c2 | B4 G4 | A2 A4 A2 | G3 G G2 G2 | A8- | A4 E4 | D2 d4 A2 | %114
w: o- * *|rum su- per|om- ni- a a-|ro- ma-|ta, su- per|om- ni- a a-|ro-|* ma-|ta, su- per|
 c3 c c2 c2 | B6 A2 | A6 G2 | A2 G2 F2 ED | E6 A2 | A16 |] %120
w: om- ni- a a-|ro- ma-|ta, a-|ro- * * * *|* ma-|ta.|
V:3
 D,12 D,4 C,4 B,,4 | A,,16 z8 | z24 |[M:4/4] z2 E,2 C,2 A,,2 | E,8 | A,,2 D,2 D,2 B,,2 | A,,8 | %7
w: To- ta pul- chra|es,||a- mi- ca-|me-|a, a- mi- ca|me-|
 D,8 |[M:3/1] z24 | z24 |[M:4/4] z2 E,2 C,2 A,,2 | E,8 | A,,8- | A,,8 | z8 | %15
w: a,|||a- mi- ca|me-|a,|||
[M:3/1] D,12 D,4 C,4 B,,4 | A,,12 A,4 G,4 F,4 | E,8 E,4 G,4 F,4 E,4 | D,8 D,4 F,4 E,4 D,4 | %19
w: To- ta pul- chra|es a- mi- ca|me- a, co- lum- ba|me- a, for- mo- sa|
 C,8 C,8 D,8 | A,,12 B,,4 C,8 | D,8 D,8 A,,8 | D,16 D,8 | G,12 G,4 G,4 G,4 | C,12 C,4 C,8 | %25
w: me- a, et|ma- cu- la|non est in|te, et|ma- cu- la, et|ma- cu- la|
 G,,8 D,8 A,,8 |[M:4/4] D,4 D,2 C,B,, | C,2 B,,A,, B,,2 C,2 | D,4 C,4 | z8 | z4 D,4- | %31
w: non est in|te. Ve- ni- de|Li- ba- no spon- sa|me- a,||ve-|
 D,2 C,B,, C,2 B,,A,, | B,,2 C,2 D,2 C,B,, | A,,8 | D,8 | D,6 E,^F, | G,8 | G,8 | G,,6 A,,B,, | %39
w: * ni- de Li- ba- no|spon- sa me- * *||a,|ve- * *||ni,|ve- * *|
 C,8 | B,,4 F,4- | F,2 D,2 E,3 E, | A,,4 A,2 A,2 | A,6 G,F, | E,8 | A,,2 A,,B,, C,4 | C,4 z2 C,D, | %47
w: |ni, co-|* ro- na- be-|ris. Vul- ne-|ra- sti cor|me-|um, vul- ne- ra-|sti, vul- ne-|
 E,4 E,2 E,2 | G,8 | G,,8 | C,8 | E,2 F,2 G,2 A,2 | D,6 C,B,, | A,,8 | D,4 D,2 D,2 | D,6 C,B,, | %56
w: ra- sti cor|me-||um,|so- ror me- a|spon- * *||sa, vul- ne-|ra- sti cor|
 A,,8 | D,8 | z8 | A,,4 D,C,B,,A,, | G,,2 D,^C, E,4 | A,,8 | z2 E,2 A,,B,,C,D, | %63
w: me-|um||in u- no o- cu-|lo- rum tu- o-|rum,|in u- no o- cu-|
 E,2 D,D, A,G, F,E, | D,2 C,B,, A,,4 | D,8 | z8 | z8 | z8 | z2 A,G, F,2 D,2 | E,4 F,4 | %71
w: lo- rum tu- o- * * *||rum,||||et in u- no|cri- ne|
 G,F, E,D, C,2 C,2 | F,E, D,C, D,2 D,2 | A,,8 | D,8 | A,8 | G,8 | F,8 | E,8 | F,2 A,2 G,4 | %80
w: col- * * * * li|col- * * * * li|tu-|i.|Quam|pul-|chrae|sunt|mam- mae tu-|
 C,4 D,4- | D,2 A,,2 E,4 | A,,4 A,2 A,2 | A,2 G,2 F,E, F,G, | A,G, F,E, D,C, D,B,, | C,6 B,,2 | %86
w: ae, mam-|* mae tu-|ae. So- ror|me- a spon- * * *|||
 A,,8 | D,8 | z8 | D,2 D,2 D,2 A,,2 | C,6 B,,2 | A,,2 B,,2 C,2 D,2 | E,8 | A,,8 | z8 | z8 | z8 | %97
w: |sa!||So- ror me- a|spon- *|||sa!||||
 z8 | z8 | A,,6 A,,2 | D,4 _B,,4 | A,,2 C,3 C, G,,2 | A,,2 _B,,2 A,,4 | D,2 D,2 A,4 | %104
w: ||Pul- chri-|o- sa|sunt u- be- ra|tu- a vi-|no et o-|
 ^F,2 F,F, G,2 G,G, | A,4 A,,4 | D,8 | z8 | z8 | D,6 A,,2 | C,3 C, C,2 B,,2 | D,6 C,B,, | A,,8 | %113
w: dor un- guen- to- rum tu-|o- *|rum|||su- per|om- ni- a a-|ro- * *||
 D,8 | C,8 | z2 E,4 ^C,2 | D,3 D, D,2 B,,2 | A,,8 | A,,8 | D,16 |] %120
w: ma-|ta,|su- per|om- ni- a a-|ro-|ma-|ta.|
V:4
 D,12 D,4 C,4 B,,4 | A,,12 A,4 G,4 F,4 | E,12 E,4 G,4 A,4 |[M:4/4] E,2 E,2 C,2 A,,2 | E,8 | %5
w: |||* * 6 *||
w: |||||
 A,,2 D,2 D,2 B,,2 | A,,8 | D,8 |[M:3/1] D12 D4 C4 B,4 | A,12 A,4 G,4 F,4 | %10
w: * * * 6|||||
w: |||||
[M:4/4] E,2 E,2 C,2 A,,2 | E,8 | A,,8- | A,,8- | A,,8 |[M:3/1] D,12 D,4 C,4 B,,4 | %16
w: * * 6 *||||||
w: ||||||
 A,,12 A,4 G,4 F,4 | E,8 E,4 G,4 F,4 E,4 | D,8 D,4 F,4 E,4 D,4 | C,8 C,8 D,8 | A,,12 B,,4 C,8 | %21
w: |||||
w: |||||
 D,8 D,8 A,,8 | D,16 D,8 | G,,12 G,,4 G,,8 | C,12 C,4 C,8 | G,,8 D,8 A,,8 |[M:4/4] D,4 D,2 C,B,, | %27
w: ||||||
w: ||||||
 C,2 B,,A,, B,,2 C,2 | D,4 C,4 | F,2 G,2 E,4 | D,4 D,4- | D,2 C,B,, C,2 B,,A,, | %32
w: |||||
w: |||||
 B,,2 C,2 D,2 C,B,, | A,,8 | D,8 | D,6 E,^F, | G,8 | G,8 | G,,6 A,,B,, | C,8 | C,4 F,4- | %41
w: ||#|||||||
w: |||||||||
 F,2 D,2 E,3 E, | A,,4 A,2 A,2 | A,6 G,F, | E,8 | A,,2 A,,B,, C,4 | C,4 C,2 C,D, | E,4 E,2 E,2 | %48
w: |||||||
w: |||||||
 G,8 | G,,8 | C,8 | E,2 F,2 G,2 A,2 | D,6 C,B,, | A,,8 | D,4 D,2 D,2 | D,6 C,B,, | A,,8 | D,8 | %58
w: ||||||||||
w: ||||||||||
 DC B,A, G,2 F,F, | A,4 D,C, B,,A,, | G,,2 D,^C, E,4 | A,,8 | E,2 E,2 A,,B,, C,D, | %63
w: |||||
w: |||||
 E,2 D,D, A,G, F,E, | D,2 C,B,, A,,4 | D,8 | E,4 F,4 | G,4 A,4 | G,2 D,2 A,,4 | A,,2 A,G, F,2 D,2 | %70
w: |||||* 6 #|* # * 6 *|
w: |||||||
 E,4 F,4 | G,F, E,D, C,4 | F,E, D,C, D,4 | A,,8 | D,8 | A,4 A,4 | G,4 G,4 | F,4 F,4 | E,4 E,4 | %79
w: ||||||6 5|6 5|6 5|
w: |||||||||
 F,2 A,2 G,4 | C,4 D,4- | D,2 A,,2 E,4 | A,,4 A,2 A,2 | A,2 G,2 F,E, F,G, | A,G, F,E, D,C, D,B,, | %85
w: ||||||
w: ||||||
 C,6 B,,2 | A,,8 | D,8 | C,6 G,2 | D,2 D,2 D,2 A,,2 | C,6 B,,2 | A,,2 B,,2 C,2 D,2 | E,8 | %93
w: 6 5||||||||
w: ||||||||
 A,,6 A,2 | D4 _B,4 | A,2 C3 C G,2 | A,2 _B,2 A,4 | D,2 D,2 A,4 | ^F,2 F,F, G,2 D,2 | A,,6 A,,2 | %100
w: |||||* 6 * * 6|# *|
w: |||* * ¤||||
 D,4 _B,,4 | A,,2 C,3 C, G,,2 | A,,2 _B,,2 A,,4 | D,2 D,2 A,4 | ^F,4 G,4 | A,4 A,,4 | D,6 D,2 | %107
w: |||||||
w: |||||||
 C,8 | G,8 | D,6 A,,2 | C,3 C, C,2 B,,2 | D,6 C,B,, | A,,8 | D,8 | C,8 | G,2 E,4 ^C,2 | D,6 B,,2 | %117
w: |||* * * 6|||||* * 6|* 6|
w: ||||||||||
 A,,8- | A,,8 | D,16 |] %120
w: |||
w: |||

